X:718
T:
S:Ur en gammal handskriven dansbok, tillhörande Gotlands fornsal.
O:Gotland
R:långdans
M:2/4
L:1/8
K:C
(CE)(Gc)|(EG)(ce)|(Gc)(eg)|(ce)(gc')|(af)(ca)|(ge)(cg)|gfdB|c4:|
(Gg)(fd)|B2G2|(ce)(ge)|c'gec|(Gg)(fd)|B2 G2|cedB|1 c2 c'2:|2 c2 z2|]

